X:19014
T:Xiraldilla (CT 234)
R:Xiraldilla
C:Tradicional
S:Música Tradicional Asturiana, (C) Tello & Tito. Asturies, 2001.
S:http://pagina.de/MusTradAst <telloytito@asturies.org>
N:Xiraldilla, transcrita en Uviéu.
O:Uviéu
A:Asturies
Z:Cancioneru de Torner 234
M:2/4
L:1/8
Q:1/4=176
W:Teng'un mandilín en casa
W:con flores de primavera;
W:el galán que me lu dio
W:ya sabe que soi soltera.
W:Esi mandilín
W:que me diste ayer,
W:ya lu recosí
W:ya lu remendé.
K:G
|c2 B2|A2 Bc|d2 c2|B4|A2 G2|F2 GA|B2 A2|G4|
c2 B2|A2 Bc|d2 c2|B4|A2 G2|F2 GA|B2 A2|G4|
AA AG|F2 GA|B2 A2|G4|
AA AG|F2 GA|B2 A2|G4||


